X: 83
T: Zhai huajiao
L: 1/8
M: 2/4
K: D
f> e d c [I:setbarnb 1]| 
B FA2 | 
B> f d c | 
B FA2 | 
F A d c/ B/ | 
A/ A B/ d F | 
A/ A/ A/ B/ A D | 
F E/ F/D2 |]

@@@ Tune index: 8957
